packages/elements/bolt-icon/src/svgs/presentation.svg

<svg enable-background="new 0 0 32 32" viewBox="0 0 32 32" xmlns="http://www.w3.org/2000/svg"><g clip-rule="evenodd" fill="#151619" fill-rule="evenodd" transform="translate(0 1)"><path d="m28 3.4v16.6c0 .2-.2.4-.4.4h-23.2c-.2-.1-.4-.2-.4-.4v-16.6c0-.2.2-.4.4-.4h23.2c.2 0 .4.2.4.4m2.7-3.1h-29.4c-.7 0-1.3.6-1.3 1.4s.6 1.3 1.3 1.3v.1 17.2c0 1.5 1.3 2.7 2.9 2.7h8.1l-2.8 4.7c-.2.3-.2.7-.1 1s.3.6.6.8c.6.4 1.4.1 1.8-.5l3.6-6h1.2l3.6 6c.2.4.7.6 1.2.6.2 0 .4-.1.7-.2.3-.2.5-.5.6-.8s0-.7-.1-1l-2.9-4.6h8.1c1.6 0 2.9-1.2 2.9-2.7v-17.2s0 0 0-.1c.7 0 1.3-.6 1.3-1.3s-.6-1.4-1.3-1.4"/><path d="m25.3 5.7c-.4 0-.7.1-.9.4l-5.9 7.1-5.5-4.4h-.1c-.5-.5-1.3-.5-1.8 0l-5.4 5.4c-.5.5-.5 1.3 0 1.8.3.3.6.4.9.4s.7-.1.9-.4l4.5-4.5 5.6 4.5c.3.3.6.4.9.4.4 0 .7-.1 1-.5l6.7-7.9c.5-.5.5-1.4 0-1.9-.2-.3-.5-.4-.9-.4"/></g></svg>

<?xml version="1.0" encoding="utf-8"?>
<!-- Generator: Adobe Illustrator 25.2.0, SVG Export Plug-In . SVG Version: 6.00 Build 0)  -->
<svg version="1.1" id="Layer_1" xmlns="http://www.w3.org/2000/svg" xmlns:xlink="http://www.w3.org/1999/xlink" x="0px" y="0px"
	 viewBox="0 0 32 32" style="enable-background:new 0 0 32 32;" xml:space="preserve">
<style type="text/css">
	.st0{fill-rule:evenodd;clip-rule:evenodd;fill:#151619;}
</style>
<g transform="translate(0 1)">
	<path class="st0" d="M28,3.4V20c0,0.2-0.2,0.4-0.4,0.4H4.4C4.2,20.3,4,20.2,4,20V3.4C4,3.2,4.2,3,4.4,3h23.2C27.8,3,28,3.2,28,3.4
		 M30.7,0.3H1.3C0.6,0.3,0,0.9,0,1.7S0.6,3,1.3,3h0c0,0,0,0,0,0.1v17.2c0,1.5,1.3,2.7,2.9,2.7h8.1l-2.8,4.7c-0.2,0.3-0.2,0.7-0.1,1
		c0.1,0.3,0.3,0.6,0.6,0.8c0.6,0.4,1.4,0.1,1.8-0.5l3.6-6h1.2l3.6,6c0.2,0.4,0.7,0.6,1.2,0.6c0.2,0,0.4-0.1,0.7-0.2
		c0.3-0.2,0.5-0.5,0.6-0.8c0.1-0.3,0-0.7-0.1-1L19.7,23h8.1c1.6,0,2.9-1.2,2.9-2.7V3.1c0,0,0,0,0-0.1h0C31.4,3,32,2.4,32,1.7
		S31.4,0.3,30.7,0.3"/>
	<path class="st0" d="M25.3,5.7L25.3,5.7c-0.4,0-0.7,0.1-0.9,0.4l-5.9,7.1L13,8.8l0,0l0,0l-0.1,0c-0.5-0.5-1.3-0.5-1.8,0l-5.4,5.4
		c-0.5,0.5-0.5,1.3,0,1.8c0.3,0.3,0.6,0.4,0.9,0.4c0.3,0,0.7-0.1,0.9-0.4l4.5-4.5l5.6,4.5l0,0c0.3,0.3,0.6,0.4,0.9,0.4h0
		c0.4,0,0.7-0.1,1-0.5L26.2,8c0.5-0.5,0.5-1.4,0-1.9C26,5.8,25.7,5.7,25.3,5.7"/>
</g>
</svg>
